X: 1
T: String Quartet in B Minor opus 64 no 2 mvt 3
C: Franz Joseph Haydn
%%abc-version 2.0
%%abcx-abcm2ps-target-version 5.9.1 (29 Sep 2008)
%%abc-creator hum2abc beta
%%abcx-conversion-date 2021/02/14 14:38:28
%%abc-copyright Copyright (c) 1994, 2000 Center for Computer Assisted Research in the Humanities
%%abc-edited-by Walter Hewlett
%%abcx-initial-encoding-date 1994/11/21
%%gracespace 0 6 6
%%humdrum-veritas 1294546712
%%humdrum-veritas-data 3626002920
%%linebreak <none>
%%barnumbers 0
L: 1/4
M: 3/4
N: Derived from op64n2-03.krn
Q: "Menuetto: Allegretto"
%%staves [1 2 3 4]
V: 1 clef=treble
V: 2 clef=treble
V: 3 clef=alto
V: 4 clef=bass
K: D
[V:1]F x2[I:setbarnb1] |
[V:2]z x2|
[V:3]z x2|
[V:4]z x2|
[V:1]B c d |
[V:2]F E D |
[V:3]D C B, |
[V:4]z3 |
[V:1]c c/B/ c |
[V:2]G z G |
[V:3]E z E |
[V:4]z3 |
[V:1]c c/B/ c |
[V:2]G z G |
[V:3]E z E |
[V:4]z3 |
[V:1]f f/e/ d/c/ |
[V:2][E2^A,2] [EA,] |
[V:3]C2 ^A, |
[V:4]F,2 F, |
[V:1]B z d |
[V:2][DB,] z F |
[V:3]B, z B, |
[V:4]B,, z B, |
[V:1]c c/B/ c |
[V:2]G z G |
[V:3]E z E |
[V:4]A, z A, |
[V:1]c c/B/ c |
[V:2]G z G |
[V:3]E z E |
[V:4]A, z A, |
[V:1]d d/e/ f/g/ |
[V:2]F z d |
[V:3]D z A |
[V:4]F, z D, |
[V:1]a a a |
[V:2]g g/f/ g |
[V:3]E E/D/ E |
[V:4]C, z C, |
[V:1]a a a |
[V:2]f f d |
[V:3]D z D |
[V:4]D, z F, |
[V:1]a/a/ a/a/ a/a/ |
[V:2]c c/B/ c |
[V:3]E E/D/ E |
[V:4]G, G,/F,/ G, |
[V:1]a/b/ c'/d'/ e'/f'/ |
[V:2]d z z |
[V:3]A F D |
[V:4]F, D, B,, |
[V:1]g' e' c' |
[V:2]B G E |
[V:3]B, z G, |
[V:4]G,, z A,, |
[V:1]d' z |
[V:2]F z |
[V:3]F, z |
[V:4]D, z |
[V:1]B, x2[I:setbarnb15] |
[V:2]z x2|
[V:3]z x2|
[V:4]G,, x2|
[V:1]=C A, A, |
[V:2]z3 |
[V:3]D,3- |
[V:4]F,, F,,/E,,/ F,, |
[V:1]B, G, B |
[V:2]z3 |
[V:3]D, z z |
[V:4]G,, z z |
[V:1]=c c/B/ c |
[V:2]z2 F |
[V:3]D/D/ D/D/ D/D/ |
[V:4]z3 |
[V:1]B z B |
[V:2]A A/^G/ A |
[V:3]^D z D |
[V:4]z3 |
[V:1]d d/c/ d |
[V:2]^G z G |
[V:3]E/E/ E/E/ E/E/ |
[V:4]z3 |
[V:1]c z c |
[V:2]B B/^A/ B |
[V:3]^E z E |
[V:4]z2 C,, |
[V:1]c2 d |
[V:2]^A2 B |
[V:3]F z z |
[V:4]F,, F,,/^E,,/ F,, |
[V:1]c z f |
[V:2]^A z A |
[V:3]z2 c |
[V:4]F,, F,,/^E,,/ F,, |
[V:1]g z ^e |
[V:2]B z B |
[V:3]d z d |
[V:4]F,, F,,/^E,,/ F,, |
[V:1]f z c |
[V:2]^A z A |
[V:3]c z E |
[V:4]F,, F,,/^E,,/ F,, |
[V:1]d z ^E |
[V:2]B z B, |
[V:3]D z D |
[V:4]F,, F,,/^E,,/ F,, |
[V:1]F z F |
[V:2]^A, z z |
[V:3]C z z |
[V:4]F,, z z |
[V:1]B c d |
[V:2]F E D |
[V:3]D C B, |
[V:4]z3 |
[V:1]c c/B/ c |
[V:2]G z G |
[V:3]E z E |
[V:4]z3 |
[V:1]c c/B/ c |
[V:2]G z G |
[V:3]E z E |
[V:4]z3 |
[V:1]f f/e/ d/c/ |
[V:2][=E2^A,2] [EA,] |
[V:3]C2 F, |
[V:4]F,2 F, |
[V:1]b b/a/ g/f/ |
[V:2][D2B,2] [DB,] |
[V:3]G,2 G, |
[V:4]G,2 G, |
[V:1]e' e'/d'/ c'/b/ |
[V:2]C2 C |
[V:3]G,2 G, |
[V:4]E,2 E, |
[V:1]^a z z |
[V:2]C z z |
[V:3]G, z z |
[V:4]E, z z |
[V:1]z3 |
[V:2]z2 B, |
[V:3]z3 |
[V:4]z3 |
[V:1]z3 |
[V:2]=C C/B,/ C |
[V:3]G, z G, |
[V:4]E, z E, |
[V:1]z3 |
[V:2]=C C/B,/ C |
[V:3]G, z G, |
[V:4]E, z E, |
[V:1]^A/A/ A/A/ A/A/ |
[V:2]=C C/B,/ C |
[V:3]G, z G, |
[V:4]E, z E, |
[V:1]^A/A/ A/A/ A/A/ |
[V:2]=C C/B,/ C |
[V:3]G, z G, |
[V:4]E, z E, |
[V:1]^A/A/ A/A/ A/A/ |
[V:2]D D/C/ D |
[V:3]^G, z G, |
[V:4]^E, z E, |
[V:1]B/c/ d/e/ f/g/ |
[V:2]D z D |
[V:3]B, z B, |
[V:4]F, z F, |
[V:1]f/g/ f/e/ d/c/ |
[V:2]C z C |
[V:3]^A, z A, |
[V:4]F, z F, |
[V:1]B z |
[V:2]D z |
[V:3]B, z |
[V:4]B,, z |
[V:1][K:B] [M:3/4]f x2[I:setbarnb43] |
[V:2][K:B] [M:3/4]z x2|
[V:3][K:B] [M:3/4]z x2|
[V:4][K:B] [M:3/4]z x2|
[V:1]b2 d' |
[V:2]F D B, |
[V:3]D B, F, |
[V:4]B,, z z |
[V:1]c'2 g' |
[V:2]G E C |
[V:3]E C E, |
[V:4]E,, z z |
[V:1]f'2 e' |
[V:2]A F C |
[V:3]F C A, |
[V:4]F,, z z |
[V:1]d' z d' |
[V:2]B F D |
[V:3]F D B, |
[V:4]B,, z B, |
[V:1]c'2 b |
[V:2]F A G |
[V:3]A, F C |
[V:4]A,2 ^E, |
[V:1]a b ^b |
[V:2]F3- |
[V:3]C F, G, |
[V:4]F, D, =D, |
[V:1]c'2 b/g/ |
[V:2]F ^E E |
[V:3]G,3 |
[V:4]C,3 |
[V:1]f z |
[V:2]F z |
[V:3]A, z |
[V:4]F, z |
[V:1]f x2[I:setbarnb51] |
[V:2]z x2|
[V:3]z x2|
[V:4]z x2|
[V:1]f'2 d'/^b/ |
[V:2]D2 =A |
[V:3]^B,2 B,/D/ |
[V:4]F,3- |
[V:1]c' e'/c'/ a |
[V:2]G2 =G |
[V:3]E2 C/E/ |
[V:4]F,3- |
[V:1]b d'/b/ g/^e/ |
[V:2]F2 =D |
[V:3]D2 B, |
[V:4]F,3- |
[V:1]f z f |
[V:2]C z z |
[V:3]A, z z |
[V:4]F, z z |
[V:1]b2 d' |
[V:2]F D B, |
[V:3]D B, F, |
[V:4]B,, z z |
[V:1]c'2 g' |
[V:2]G E C |
[V:3]E C E, |
[V:4]E,, z z |
[V:1]f'2 e' |
[V:2]A F C |
[V:3]F C A, |
[V:4]F,, z z |
[V:1]d'2 f' |
[V:2]B F D |
[V:3]F D B, |
[V:4]B,, z z |
[V:1]b'2 f' |
[V:2]F B d |
[V:3]D F B |
[V:4]D,3 |
[V:1]g'2 e'/c'/ |
[V:2]G c e |
[V:3]B, E G |
[V:4]E,3 |
[V:1]b2 c' |
[V:2]d B A |
[V:3]F2 E |
[V:4]F,3 |
[V:1]b z :|]
[V:2]B z :|]
[V:3]D z :|]
[V:4]B,, z :|]

